X: 74
T: Da na ba la
L: 1/8
M: 2/4
K: F
A c c f [I:setbarnb 1]| 
d c A G | 
A c c d/ d/ | 
F> G D C | 
c4- | 
c4 | 
A c c f | 
d c A G | 
A c c d | 
c> G A c | 
G4- | 
G4 | 
G> A c c | 
c d D C | 
A> c G F | 
F DC2 | 
G3d | 
c> d c A | 
G G A G | 
F DC2 | 
A A c c | 
G> FD2 | 
C4- | 
C4 |]

@@@ Tune index: 8742
